logos/openai.svg

<?xml version="1.0" encoding="UTF-8"?>
<svg width="512px" height="126px" viewBox="0 0 512 126" version="1.1" xmlns="http://www.w3.org/2000/svg" xmlns:xlink="http://www.w3.org/1999/xlink" preserveAspectRatio="xMidYMid">
    <title>OpenAI</title>
    <g fill="#000000">
				<path d="M365.131428,49.0741817 C357.593526,49.0741817 352.214006,51.6489012 349.573549,56.5244338 L348.154714,59.1648908 L348.154714,50.3451071 L335.889189,50.3451071 L335.889189,103.954053 L348.790177,103.954053 L348.790177,72.0604006 C348.790177,64.4403266 352.93164,60.0687816 360.146333,60.0687816 C367.02686,60.0687816 370.971111,64.3252859 370.971111,71.7426692 L370.971111,103.954053 L383.877577,103.954053 L383.877577,69.4418561 C383.877577,56.6778213 376.871053,49.0741817 365.131428,49.0741817 Z M302.565745,49.0741817 C287.342032,49.0741817 277.914176,58.5732531 277.914176,73.8627042 L277.914176,81.38965 C277.914176,96.0929416 287.451594,105.224978 302.806783,105.224978 C313.07827,105.224978 320.276528,101.461506 324.806939,93.7209128 L316.808874,89.1192865 C313.461739,93.5839596 308.115087,96.3504135 302.812261,96.3504135 C295.038799,96.3504135 290.398826,91.5515747 290.398826,83.509685 L290.398826,81.3786938 L326.406552,81.3786938 L326.406552,72.4876944 C326.406552,58.2445655 317.05539,49.0741817 302.576701,49.0741817 L302.565745,49.0741817 Z M314.666927,72.7122976 L290.355001,72.7122976 L290.355001,71.4249379 C290.355001,62.5996761 294.688199,57.7296216 302.554789,57.7296216 C310.131038,57.7296216 314.65597,62.5284604 314.65597,70.5703502 L314.666927,72.7122976 Z M512,41.5198452 L512,31.2647924 L467.375181,31.2647924 L467.375181,41.5198452 L483.020711,41.5198452 L483.020711,93.6770878 L467.375181,93.6770878 L467.375181,103.932141 L512,103.932141 L512,93.6770878 L496.348993,93.6770878 L496.348993,41.5198452 L512,41.5198452 Z M173.638038,29.7856983 C153.708613,29.7856983 141.317091,42.2046111 141.317091,62.205251 L141.317091,73.0190727 C141.317091,93.0142345 153.703135,105.438625 173.638038,105.438625 C193.57294,105.438625 205.958984,93.0142345 205.958984,73.0190727 L205.958984,62.205251 C205.953506,42.1826986 193.551028,29.7856983 173.638038,29.7856983 Z M192.625224,73.7586198 C192.625224,87.0375985 185.70635,94.6521943 173.638038,94.6521943 C161.569725,94.6521943 154.656329,87.0375985 154.656329,73.7586198 L154.656329,61.4602258 C154.656329,48.1812471 161.580681,40.5666512 173.643516,40.5666512 C185.70635,40.5666512 192.630702,48.1812471 192.630702,61.4602258 L192.625224,73.7586198 Z M246.480686,49.0741817 C239.709722,49.0741817 233.848126,51.8789825 230.791332,56.5737369 L229.405366,58.7102063 L229.405366,50.3451071 L217.134362,50.3451071 L217.134362,122.398905 L230.040828,122.398905 L230.040828,96.3011104 L231.421316,98.3499297 C234.324723,102.655737 239.994584,105.224978 246.590248,105.224978 C257.716323,105.224978 268.941005,97.9555046 268.941005,81.7073814 L268.941005,72.5917788 C268.941005,60.8850225 262.022131,49.0741817 246.480686,49.0741817 L246.480686,49.0741817 Z M256.034539,81.0773968 C256.034539,89.7164023 250.994662,95.0849663 242.887035,95.0849663 C235.32722,95.0849663 230.051785,89.4096272 230.051785,81.2910437 L230.051785,73.2272415 C230.051785,65.0100517 235.371045,59.2251501 242.996597,59.2251501 C251.043965,59.2251501 256.045495,64.588236 256.045495,73.2272415 L256.034539,81.0773968 Z M419.540181,31.2702705 L393.502645,103.954053 L406.611802,103.954053 L411.596897,88.3742613 L441.529381,88.3742613 L441.578684,88.5276489 L446.508998,103.954053 L459.612676,103.954053 L433.531316,31.2647924 L419.540181,31.2702705 Z M414.796123,78.1246866 L426.541226,41.377414 L438.165811,78.1246866 L414.796123,78.1246866 Z"></path>
				<path d="M116.08484,51.5612512 C118.942613,42.9827523 117.960247,33.5883781 113.389602,25.7866659 C106.508682,13.8288345 92.6973243,7.67791081 79.2060928,10.5629523 C73.2060618,3.79625563 64.5786473,-0.0532364603 55.5351081,0.000556328614 C41.7355849,-0.0302926402 29.4968898,8.85809568 25.2575029,21.9903242 C16.3994728,23.8073685 8.75503049,29.3555286 4.28175645,37.2140378 C-2.63538569,49.152298 -1.05721438,64.1903007 8.18766065,74.4324294 C5.34111759,83.0030169 6.32316165,92.3843321 10.8828989,100.179624 C17.7575638,112.161259 31.5861367,118.328205 45.093799,115.436206 C51.0883814,122.194518 59.7036911,126.043062 68.737393,125.998425 C82.5369162,126.029451 94.7756114,117.141063 99.0149983,104.008834 C107.871293,102.191014 115.513744,96.6428507 119.985267,88.7851208 C126.920873,76.8497637 125.343882,61.7996855 116.08484,51.5612512 Z M68.737393,117.780853 C63.2141366,117.785642 57.8654034,115.846289 53.6287201,112.302718 C53.8149764,112.198634 54.1765327,112.017855 54.3847016,111.880902 L79.474521,97.3967357 C80.7562304,96.6686637 81.5441301,95.3045077 81.5342966,93.8304753 L81.5342966,58.4527343 L92.1344714,64.5718016 C92.2510065,64.6269956 92.3300309,64.7392935 92.3426402,64.8676205 L92.3426402,94.1482067 C92.3426402,107.189463 81.7786405,117.765729 68.737393,117.780853 L68.737393,117.780853 Z M18.0154196,96.1203322 C15.2495784,91.3404624 14.2510197,85.7407779 15.1941845,80.2995028 C15.3804408,80.4145435 15.7091284,80.6117561 15.9392097,80.7432311 L41.0345072,95.2328757 C42.3066308,95.9779237 43.8819348,95.9779237 45.1540584,95.2328757 L75.7713075,77.5275708 L75.7713075,89.7657055 C75.7828997,89.8935989 75.7268067,90.0182501 75.6233981,90.0943931 L50.2596723,104.731947 C38.9678692,111.233586 24.5441209,107.369119 18.0154196,96.0929416 L18.0154196,96.1203322 Z M11.4416678,41.3390671 C14.1945376,36.5519884 18.5445232,32.8865971 23.7291056,30.985408 L23.7291056,60.8083287 C23.7215951,62.2817457 24.5088656,63.6448123 25.7888811,64.3745891 L56.4116084,82.0579815 L45.7730867,88.1989613 C45.6677553,88.2698947 45.5335448,88.2822834 45.4170084,88.23183 L20.0587608,73.5887979 C8.77671207,67.0619249 4.91115861,52.6316692 11.4197553,41.3390671 L11.4416678,41.3390671 Z M98.5438794,61.6081352 L67.9211522,43.9247428 L78.5103707,37.8001973 C78.6160478,37.73024 78.7497514,37.7178982 78.8664489,37.7673286 L104.224697,52.4103608 C112.153676,56.9917322 116.718476,65.7447168 115.937024,74.8686966 C115.155572,83.9926763 109.16882,91.84194 100.576264,95.0082725 L100.576264,65.1908299 C100.593141,63.7135298 99.8092479,62.3427655 98.527445,61.6081352 L98.5438794,61.6081352 Z M109.100229,45.7215683 C108.913973,45.6065276 108.585285,45.4093151 108.355204,45.27784 L83.2599064,30.7881954 C81.9877828,30.0431474 80.4124789,30.0431474 79.1403553,30.7881954 L48.5173955,48.4661097 L48.5173955,36.2334532 C48.5132731,36.1056698 48.5702821,35.9835077 48.6710156,35.9047656 L74.0292632,21.2672115 C81.9611862,16.694978 91.8213323,17.1204093 99.3299585,22.3588493 C106.838585,27.5972893 110.641969,36.7043054 109.089273,45.7270464 L109.100229,45.7215683 Z M42.7382046,67.5464243 L32.1325516,61.427357 C32.0220863,61.3662676 31.9469493,61.2566082 31.9298541,61.1315382 L31.9298541,31.8509519 C31.9229009,22.6891727 37.2178921,14.3508632 45.5129032,10.4609995 C53.8079142,6.57113579 63.604525,7.83238731 70.6437811,13.6964407 C70.4575247,13.8005251 70.123359,13.9813033 69.8877996,14.1182564 L44.7979802,28.6024229 C43.5179646,29.3321997 42.7306941,30.6952663 42.7382046,32.1686833 L42.7382046,67.5464243 Z M48.4957155,55.1275115 L62.1362506,47.2499656 L75.7713075,55.1275115 L75.7713075,70.8716471 L62.1307724,78.749193 L48.4902374,70.8716471 L48.4957155,55.1275115 Z"></path>
		</g>
</svg>

<svg preserveAspectRatio="xMidYMid" viewBox="0 0 512 126" xmlns="http://www.w3.org/2000/svg">
  <path d="M365.131 49.074c-7.537 0-12.917 2.575-15.557 7.45l-1.42 2.64v-8.819H335.89v53.61h12.901V72.06c0-7.62 4.142-11.991 11.356-11.991 6.88 0 10.825 4.256 10.825 11.674v32.211h12.907V69.442c0-12.764-7.007-20.368-18.747-20.368Zm-62.565 0c-15.224 0-24.652 9.5-24.652 24.789v7.527c0 14.703 9.538 23.835 24.893 23.835 10.271 0 17.47-3.763 22-11.504l-7.998-4.602c-3.347 4.465-8.694 7.231-13.997 7.231-7.773 0-12.413-4.798-12.413-12.84v-2.131h36.008v-8.891c0-14.243-9.352-23.414-23.83-23.414h-.011Zm12.1 23.638h-24.311v-1.287c0-8.825 4.333-13.695 12.2-13.695 7.576 0 12.101 4.798 12.101 12.84l.01 2.142ZM512 41.52V31.265h-44.625V41.52h15.646v52.157h-15.646v10.255H512V93.677h-15.651V41.52H512ZM173.638 29.786c-19.93 0-32.32 12.419-32.32 32.42v10.813c0 19.995 12.385 32.42 32.32 32.42 19.935 0 32.321-12.425 32.321-32.42V62.205c-.005-20.022-12.408-32.42-32.321-32.42Zm18.987 43.973c0 13.279-6.919 20.893-18.987 20.893-12.068 0-18.982-7.614-18.982-20.893V61.46c0-13.279 6.925-20.893 18.988-20.893 12.062 0 18.987 7.614 18.987 20.893l-.006 12.299Zm53.856-24.685c-6.771 0-12.633 2.805-15.69 7.5l-1.386 2.136v-8.365h-12.27V122.4h12.906V96.3l1.38 2.049c2.904 4.306 8.574 6.875 15.17 6.875 11.125 0 22.35-7.27 22.35-23.518v-9.115c0-11.707-6.919-23.518-22.46-23.518Zm9.554 32.003c0 8.64-5.04 14.008-13.148 14.008-7.56 0-12.835-5.675-12.835-13.794v-8.064c0-8.217 5.319-14.002 12.945-14.002 8.047 0 13.048 5.363 13.048 14.002l-.01 7.85ZM419.54 31.27l-26.037 72.684h13.109l4.985-15.58h29.932l.05.154 4.93 15.426h13.104l-26.082-72.69-13.99.006Zm-4.744 46.855 11.745-36.748 11.625 36.748h-23.37Z"/>
  <path d="M116.085 51.561a31.373 31.373 0 0 0-2.695-25.774 31.773 31.773 0 0 0-34.184-15.224A31.387 31.387 0 0 0 55.536.001a31.742 31.742 0 0 0-30.278 21.99A31.395 31.395 0 0 0 4.282 37.213a31.773 31.773 0 0 0 3.906 37.218 31.395 31.395 0 0 0 2.695 25.748 31.773 31.773 0 0 0 34.21 15.256 31.397 31.397 0 0 0 23.644 10.562 31.741 31.741 0 0 0 30.278-21.99 31.39 31.39 0 0 0 20.97-15.223 31.73 31.73 0 0 0-3.9-37.224Zm-47.348 66.22a23.518 23.518 0 0 1-15.108-5.478c.186-.104.548-.285.756-.422l25.09-14.484a4.07 4.07 0 0 0 2.06-3.567V58.453l10.6 6.119a.367.367 0 0 1 .208.296v29.28c0 13.041-10.564 23.618-23.606 23.633ZM18.015 96.12a23.556 23.556 0 0 1-2.82-15.821c.185.115.514.312.744.443l25.096 14.49a4.076 4.076 0 0 0 4.12 0L75.77 77.528v12.238a.367.367 0 0 1-.148.328L50.26 104.732c-11.292 6.502-25.716 2.637-32.245-8.64v.028Zm-6.573-54.782a23.512 23.512 0 0 1 12.287-10.354v29.823a4.081 4.081 0 0 0 2.06 3.567l30.623 17.683-10.639 6.141a.373.373 0 0 1-.356.033L20.059 73.589c-11.282-6.527-15.148-20.957-8.64-32.25h.023Zm87.102 20.27L67.92 43.924l10.59-6.125a.378.378 0 0 1 .355-.033l25.359 14.643a23.61 23.61 0 0 1-3.649 42.598V65.191a4.076 4.076 0 0 0-2.049-3.583h.017ZM109.1 45.721a30.132 30.132 0 0 0-.745-.444L83.26 30.788a4.076 4.076 0 0 0-4.12 0L48.517 48.466V36.233a.4.4 0 0 1 .154-.328l25.358-14.638a23.61 23.61 0 0 1 35.06 24.46l.011-.005ZM42.738 67.546l-10.605-6.119a.4.4 0 0 1-.203-.295V31.85a23.605 23.605 0 0 1 38.714-18.155c-.186.105-.52.285-.756.422l-25.09 14.484a4.081 4.081 0 0 0-2.06 3.567v35.377Zm5.758-12.418 13.64-7.878 13.635 7.878v15.744l-13.64 7.877-13.64-7.877.005-15.744Z"/>
</svg>
